assets/icons/qvision/redeem.svg

<svg xmlns="http://www.w3.org/2000/svg" height="24" viewBox="0 0 24 24" width="24"><path d="M0 0h24v24H0z" fill="none"/><path d="M20 6h-2.18c.11-.31.18-.65.18-1 0-1.66-1.34-3-3-3-1.05 0-1.96.54-2.5 1.35l-.5.67-.5-.68C10.96 2.54 10.05 2 9 2 7.34 2 6 3.34 6 5c0 .35.07.69.18 1H4c-1.11 0-1.99.89-1.99 2L2 19c0 1.11.89 2 2 2h16c1.11 0 2-.89 2-2V8c0-1.11-.89-2-2-2zm-5-2c.55 0 1 .45 1 1s-.45 1-1 1-1-.45-1-1 .45-1 1-1zM9 4c.55 0 1 .45 1 1s-.45 1-1 1-1-.45-1-1 .45-1 1-1zm11 15H4v-2h16v2zm0-5H4V8h5.08L7 10.83 8.62 12 11 8.76l1-1.36 1 1.36L15.38 12 17 10.83 14.92 8H20v6z"/></svg>

<svg width="24" height="24" viewBox="0 0 24 24" fill="none" xmlns="http://www.w3.org/2000/svg">
<g clip-path="url(#clip0_147_4621)">
<path d="M20 6H17.82C17.93 5.69 18 5.35 18 5C18 3.34 16.66 2 15 2C13.95 2 13.04 2.54 12.5 3.35L12 4.02L11.5 3.34C10.96 2.54 10.05 2 9 2C7.34 2 6 3.34 6 5C6 5.35 6.07 5.69 6.18 6H4C2.89 6 2.01 6.89 2.01 8L2 19C2 20.11 2.89 21 4 21H20C21.11 21 22 20.11 22 19V8C22 6.89 21.11 6 20 6ZM15 4C15.55 4 16 4.45 16 5C16 5.55 15.55 6 15 6C14.45 6 14 5.55 14 5C14 4.45 14.45 4 15 4ZM9 4C9.55 4 10 4.45 10 5C10 5.55 9.55 6 9 6C8.45 6 8 5.55 8 5C8 4.45 8.45 4 9 4ZM20 19H4V17H20V19ZM20 14H4V8H9.08L7 10.83L8.62 12L11 8.76L12 7.4L13 8.76L15.38 12L17 10.83L14.92 8H20V14Z" fill="#323232"/>
</g>
<defs>
<clipPath id="clip0_147_4621">
<rect width="24" height="24" fill="white"/>
</clipPath>
</defs>
</svg>
